src/assets/logo.svg

<svg width="142" height="48" viewBox="0 0 142 48" fill="none" xmlns="http://www.w3.org/2000/svg">
<rect width="24.1299" height="24.1299" transform="matrix(0.86651 0.49916 -0.86651 0.49916 20.9088 6.19646)" fill="url(#paint0_linear_1_2102)"/>
<rect width="24.1299" height="15.6581" transform="matrix(0.86651 0.49916 0 1 3.05176e-05 18.2411)" fill="#FF7A9D"/>
<rect width="24.1299" height="15.6581" transform="matrix(0.86651 -0.49916 0 1 20.9088 30.2858)" fill="#EC436F"/>
<circle cx="4.14733" cy="4.14733" r="4.14733" transform="matrix(0.86651 0.49916 -0.86651 0.49916 20.8813 2.05611)" fill="url(#paint1_linear_1_2102)"/>
<path d="M15.799 6.19646C15.799 7.00492 16.3678 7.73684 17.2875 8.26664V13.6491C16.3678 13.1193 15.799 12.3874 15.799 11.5789V6.19646Z" fill="#FF7A9D"/>
<path d="M17.2876 8.26664C19.2723 9.40997 22.4902 9.40997 24.475 8.26664V13.6491C22.4902 14.7924 19.2723 14.7924 17.2876 13.6491V8.26664Z" fill="#EC436F"/>
<path d="M25.9635 6.19646C25.9635 7.00492 25.3946 7.73684 24.4749 8.26664V13.6491C25.3946 13.1193 25.9635 12.3874 25.9635 11.5789V6.19646Z" fill="#EC436F"/>
<circle cx="4.14733" cy="4.14733" r="4.14733" transform="matrix(0.86651 0.49916 -0.86651 0.49916 31.6703 8.26664)" fill="url(#paint2_linear_1_2102)"/>
<path d="M26.588 12.407C26.588 13.2155 27.1569 13.9474 28.0766 14.4772V19.8596C27.1569 19.3298 26.588 18.5979 26.588 17.7895V12.407Z" fill="#FF7A9D"/>
<path d="M28.0766 14.4772C30.0614 15.6205 33.2793 15.6205 35.264 14.4772V19.8596C33.2793 21.003 30.0614 21.003 28.0766 19.8596V14.4772Z" fill="#EC436F"/>
<path d="M36.7526 12.407C36.7526 13.2155 36.1837 13.9474 35.264 14.4772V19.8596C36.1837 19.3298 36.7526 18.5979 36.7526 17.7895V12.407Z" fill="#EC436F"/>
<circle cx="4.14733" cy="4.14733" r="4.14733" transform="matrix(0.86651 0.49916 -0.86651 0.49916 10.9222 8.26664)" fill="url(#paint3_linear_1_2102)"/>
<path d="M5.83985 12.407C5.83985 13.2155 6.4087 13.9474 7.32841 14.4772V19.8596C6.4087 19.3298 5.83985 18.5979 5.83985 17.7895V12.407Z" fill="#FF7A9D"/>
<path d="M7.32845 14.4772C9.3132 15.6205 12.5311 15.6205 14.5159 14.4772V19.8596C12.5311 21.003 9.3132 21.003 7.32845 19.8596V14.4772Z" fill="#EC436F"/>
<path d="M16.0044 12.407C16.0044 13.2155 15.4355 13.9474 14.5158 14.4772V19.8596C15.4355 19.3298 16.0044 18.5979 16.0044 17.7895V12.407Z" fill="#EC436F"/>
<circle cx="4.14733" cy="4.14733" r="4.14733" transform="matrix(0.86651 0.49916 -0.86651 0.49916 20.8813 14.4772)" fill="url(#paint4_linear_1_2102)"/>
<path d="M15.799 18.6175C15.799 19.426 16.3678 20.1579 17.2875 20.6877V26.0702C16.3678 25.5404 15.799 24.8085 15.799 24V18.6175Z" fill="#FF7A9D"/>
<path d="M17.2876 20.6877C19.2723 21.831 22.4902 21.831 24.475 20.6877V26.0702C22.4902 27.2135 19.2723 27.2135 17.2876 26.0702V20.6877Z" fill="#EC436F"/>
<path d="M25.9635 18.6175C25.9635 19.426 25.3946 20.1579 24.4749 20.6877V26.0702C25.3946 25.5404 25.9635 24.8085 25.9635 24V18.6175Z" fill="#EC436F"/>
<path d="M63.7464 36C63.6197 36 63.5564 35.9367 63.5564 35.81L63.6324 9.704C63.6324 9.60267 63.6831 9.552 63.7844 9.552H75.9444C76.0711 9.552 76.1344 9.60267 76.1344 9.704V13.998C76.1344 14.0993 76.0837 14.15 75.9824 14.15H68.1924V20.04H75.9824C76.0837 20.04 76.1344 20.1033 76.1344 20.23L76.1724 24.524C76.1724 24.6253 76.1091 24.676 75.9824 24.676H68.1924V35.81C68.1924 35.9367 68.1291 36 68.0024 36H63.7464ZM76.032 35.81L80.744 9.704C80.7693 9.60267 80.8326 9.552 80.934 9.552H86.444C86.5453 9.552 86.6086 9.60267 86.634 9.704L91.156 35.81C91.1813 35.9367 91.1306 36 91.004 36H86.786C86.6846 36 86.6213 35.9367 86.596 35.81L86.178 33.036H81.01L80.592 35.81C80.5666 35.9367 80.5033 36 80.402 36H76.184C76.0826 36 76.032 35.9367 76.032 35.81ZM81.77 28.97H85.418L83.86 18.292L83.632 16.886L83.48 18.292L81.77 28.97ZM93.6928 36C93.5914 36 93.5408 35.9367 93.5408 35.81L93.6168 9.704C93.6168 9.60267 93.6674 9.552 93.7688 9.552H101.065C102.509 9.552 103.801 9.90667 104.941 10.616C106.081 11.3 106.98 12.212 107.639 13.352C108.297 14.492 108.627 15.7333 108.627 17.076C108.627 18.1653 108.373 19.1787 107.867 20.116C107.385 21.0533 106.803 21.8133 106.119 22.396C106.853 23.1307 107.423 23.9793 107.829 24.942C108.234 25.9047 108.437 26.918 108.437 27.982C108.437 29.4513 108.082 30.794 107.373 32.01C106.663 33.226 105.701 34.2013 104.485 34.936C103.294 35.6453 101.964 36 100.495 36H93.6928ZM98.1768 20.04H101.065C101.951 20.04 102.661 19.736 103.193 19.128C103.75 18.4947 104.029 17.8107 104.029 17.076C104.029 16.2653 103.737 15.5687 103.155 14.986C102.572 14.378 101.875 14.074 101.065 14.074H98.1768V20.04ZM98.1388 31.364H100.495C101.407 31.364 102.192 31.0347 102.851 30.376C103.509 29.692 103.839 28.894 103.839 27.982C103.839 27.07 103.509 26.2847 102.851 25.626C102.192 24.9673 101.407 24.638 100.495 24.638H98.1768L98.1388 31.364ZM111.32 36C111.218 36 111.168 35.9367 111.168 35.81L111.206 9.742C111.206 9.61533 111.269 9.552 111.396 9.552H115.614C115.74 9.552 115.804 9.61533 115.804 9.742L115.766 31.326H123.594C123.72 31.326 123.784 31.3893 123.784 31.516V35.81C123.784 35.9367 123.72 36 123.594 36H111.32ZM132.782 36.38C131.414 36.38 130.16 36.038 129.02 35.354C127.905 34.6447 127.006 33.72 126.322 32.58C125.638 31.4147 125.296 30.1353 125.296 28.742L125.334 16.696C125.334 15.3027 125.663 14.036 126.322 12.896C127.006 11.756 127.918 10.844 129.058 10.16C130.198 9.476 131.439 9.134 132.782 9.134C134.15 9.134 135.391 9.476 136.506 10.16C137.62 10.844 138.507 11.756 139.166 12.896C139.85 14.036 140.192 15.3027 140.192 16.696L140.23 28.742C140.23 30.1353 139.888 31.4147 139.204 32.58C138.545 33.72 137.646 34.6447 136.506 35.354C135.391 36.038 134.15 36.38 132.782 36.38ZM132.782 31.782C133.542 31.782 134.2 31.478 134.758 30.87C135.34 30.2367 135.632 29.5273 135.632 28.742L135.594 16.696C135.594 15.86 135.328 15.1507 134.796 14.568C134.264 13.9853 133.592 13.694 132.782 13.694C131.996 13.694 131.325 13.9853 130.768 14.568C130.21 15.1253 129.932 15.8347 129.932 16.696V28.742C129.932 29.578 130.21 30.3 130.768 30.908C131.325 31.4907 131.996 31.782 132.782 31.782Z" fill="#FF7A9D"/>
<defs>
<linearGradient id="paint0_linear_1_2102" x1="12.0649" y1="0" x2="12.0649" y2="24.1299" gradientUnits="userSpaceOnUse">
<stop stop-color="#FF9BBB"/>
<stop offset="1" stop-color="#FF507F"/>
</linearGradient>
<linearGradient id="paint1_linear_1_2102" x1="4.14733" y1="0" x2="4.14733" y2="8.29465" gradientUnits="userSpaceOnUse">
<stop stop-color="#FF9BBB"/>
<stop offset="1" stop-color="#FF507F"/>
</linearGradient>
<linearGradient id="paint2_linear_1_2102" x1="4.14733" y1="0" x2="4.14733" y2="8.29465" gradientUnits="userSpaceOnUse">
<stop stop-color="#FF9BBB"/>
<stop offset="1" stop-color="#FF507F"/>
</linearGradient>
<linearGradient id="paint3_linear_1_2102" x1="4.14733" y1="0" x2="4.14733" y2="8.29465" gradientUnits="userSpaceOnUse">
<stop stop-color="#FF9BBB"/>
<stop offset="1" stop-color="#FF507F"/>
</linearGradient>
<linearGradient id="paint4_linear_1_2102" x1="4.14733" y1="0" x2="4.14733" y2="8.29465" gradientUnits="userSpaceOnUse">
<stop stop-color="#FF9BBB"/>
<stop offset="1" stop-color="#FF507F"/>
</linearGradient>
</defs>
</svg>

<svg xmlns="http://www.w3.org/2000/svg" width="142" height="48" fill="none" viewBox="0 0 142 48"><path fill="url(#a)" d="M0 0h24.13v24.13H0z" transform="matrix(.86651 .49916 -.86651 .49916 20.909 6.196)"/><path fill="#ff7a9d" d="m0 18.241 20.909 12.045v15.658L0 33.899z"/><path fill="#ec436f" d="M20.909 30.286 41.818 18.24V33.9l-20.91 12.045z"/><circle cx="4.147" cy="4.147" r="4.147" fill="url(#b)" transform="matrix(.86651 .49916 -.86651 .49916 20.881 2.056)"/><path fill="#ff7a9d" d="M15.799 6.196c0 .809.569 1.54 1.489 2.07v5.383c-.92-.53-1.489-1.262-1.489-2.07z"/><path fill="#ec436f" d="M17.288 8.267c1.984 1.143 5.202 1.143 7.187 0v5.382c-1.985 1.143-5.203 1.143-7.187 0z"/><path fill="#ec436f" d="M25.964 6.196c0 .809-.57 1.54-1.49 2.07v5.383c.92-.53 1.49-1.262 1.49-2.07z"/><circle cx="4.147" cy="4.147" r="4.147" fill="url(#c)" transform="matrix(.86651 .49916 -.86651 .49916 31.67 8.267)"/><path fill="#ff7a9d" d="M26.588 12.407c0 .809.569 1.54 1.489 2.07v5.383c-.92-.53-1.489-1.262-1.489-2.07z"/><path fill="#ec436f" d="M28.077 14.477c1.984 1.143 5.202 1.143 7.187 0v5.383c-1.985 1.143-5.203 1.143-7.187 0zM36.753 12.407c0 .809-.57 1.54-1.489 2.07v5.383c.92-.53 1.489-1.262 1.489-2.07z"/><circle cx="4.147" cy="4.147" r="4.147" fill="url(#d)" transform="matrix(.86651 .49916 -.86651 .49916 10.922 8.267)"/><path fill="#ff7a9d" d="M5.84 12.407c0 .809.569 1.54 1.488 2.07v5.383c-.92-.53-1.488-1.262-1.488-2.07z"/><path fill="#ec436f" d="M7.328 14.477c1.985 1.143 5.203 1.143 7.188 0v5.383c-1.985 1.143-5.203 1.143-7.188 0zM16.004 12.407c0 .809-.569 1.54-1.488 2.07v5.383c.92-.53 1.488-1.262 1.488-2.07z"/><circle cx="4.147" cy="4.147" r="4.147" fill="url(#e)" transform="matrix(.86651 .49916 -.86651 .49916 20.881 14.477)"/><path fill="#ff7a9d" d="M15.799 18.618c0 .808.569 1.54 1.489 2.07v5.382c-.92-.53-1.489-1.262-1.489-2.07z"/><path fill="#ec436f" d="M17.288 20.688c1.984 1.143 5.202 1.143 7.187 0v5.382c-1.985 1.143-5.203 1.143-7.187 0z"/><path fill="#ec436f" d="M25.964 18.618c0 .808-.57 1.54-1.49 2.07v5.382c.92-.53 1.49-1.262 1.49-2.07z"/><path fill="#ff7a9d" d="M63.746 36q-.19 0-.19-.19l.076-26.106q0-.152.152-.152h12.16q.19 0 .19.152v4.294q0 .152-.152.152h-7.79v5.89h7.79q.153 0 .152.19l.038 4.294q0 .152-.19.152h-7.79V35.81q0 .19-.19.19zm12.286-.19 4.712-26.106q.038-.152.19-.152h5.51q.152 0 .19.152l4.522 26.106q.038.19-.152.19h-4.218q-.152 0-.19-.19l-.418-2.774H81.01l-.418 2.774q-.038.19-.19.19h-4.218q-.152 0-.152-.19m5.738-6.84h3.648L83.86 18.292l-.228-1.406-.152 1.406zM93.693 36q-.153 0-.152-.19l.076-26.106q0-.152.152-.152h7.296q2.166 0 3.876 1.064a7.55 7.55 0 0 1 2.698 2.736 7.3 7.3 0 0 1 .988 3.724 6.3 6.3 0 0 1-.76 3.04q-.723 1.406-1.748 2.28a7.9 7.9 0 0 1 1.71 2.546 7.8 7.8 0 0 1 .608 3.04q0 2.205-1.064 4.028a8.2 8.2 0 0 1-2.888 2.926q-1.787 1.065-3.99 1.064zm4.484-15.96h2.888q1.33 0 2.128-.912.836-.95.836-2.052 0-1.215-.874-2.09-.875-.912-2.09-.912h-2.888zm-.038 11.324h2.356q1.368 0 2.356-.988.987-1.026.988-2.394 0-1.368-.988-2.356t-2.356-.988h-2.318zM111.32 36q-.153 0-.152-.19l.038-26.068q0-.19.19-.19h4.218q.19 0 .19.19l-.038 21.584h7.828q.19 0 .19.19v4.294q0 .19-.19.19zm21.462.38a7.2 7.2 0 0 1-3.762-1.026 8.3 8.3 0 0 1-2.698-2.774q-1.026-1.748-1.026-3.838l.038-12.046q0-2.09.988-3.8a7.86 7.86 0 0 1 2.736-2.736 7.1 7.1 0 0 1 3.724-1.026q2.052 0 3.724 1.026a7.66 7.66 0 0 1 2.66 2.736q1.026 1.71 1.026 3.8l.038 12.046q0 2.09-1.026 3.838a7.86 7.86 0 0 1-2.698 2.774q-1.672 1.026-3.724 1.026m0-4.598q1.14 0 1.976-.912.873-.95.874-2.128l-.038-12.046q0-1.254-.798-2.128-.799-.874-2.014-.874-1.179 0-2.014.874-.837.836-.836 2.128v12.046q0 1.254.836 2.166.835.874 2.014.874"/><defs><linearGradient id="a" x1="12.065" x2="12.065" y1="0" y2="24.13" gradientUnits="userSpaceOnUse"><stop stop-color="#ff9bbb"/><stop offset="1" stop-color="#ff507f"/></linearGradient><linearGradient id="b" x1="4.147" x2="4.147" y1="0" y2="8.295" gradientUnits="userSpaceOnUse"><stop stop-color="#ff9bbb"/><stop offset="1" stop-color="#ff507f"/></linearGradient><linearGradient id="c" x1="4.147" x2="4.147" y1="0" y2="8.295" gradientUnits="userSpaceOnUse"><stop stop-color="#ff9bbb"/><stop offset="1" stop-color="#ff507f"/></linearGradient><linearGradient id="d" x1="4.147" x2="4.147" y1="0" y2="8.295" gradientUnits="userSpaceOnUse"><stop stop-color="#ff9bbb"/><stop offset="1" stop-color="#ff507f"/></linearGradient><linearGradient id="e" x1="4.147" x2="4.147" y1="0" y2="8.295" gradientUnits="userSpaceOnUse"><stop stop-color="#ff9bbb"/><stop offset="1" stop-color="#ff507f"/></linearGradient></defs></svg>
